X: 36800
T: Shetland Fiddler, The
R: reel
M: 4/4
K: Dmajor
|:AB|d2fd A2fe|defg afdf|e2 ge B2ed|cdef gece|
d2fd A2fe|defg afdf|(3fga fd fafd|Bgec d2:|
|:cd|eAfA gAaA|faaf gfed|AaBa cada|efed cABc|
dAeA fAgA|faaf gfed|fafd (3fga fd|Bgec d2:|

